X:037 
T:Connell's Contribution* (reel)
F:file ID: cre.5/037conn_c
B:CRE5.180 (gan ainm)
M:4/4
Q:180
R:reel
K:D
AddB cABG|AddB cdeg|AddB cABG|AFEG FDD2:|
f2fe d2dB|A2AF ABde|f2fe d2dB|AFEG FDD2|
f2fe d2dB|A2AF ABde|fdec dBAF|AFEG FDD2|]

%%%

